; Generated by Aprintlab Editor Cloud Slicer (CuraEngine Compatibility Mode) on 19-05-2022
M140 S55
M105
M190 S55
M104 S215
M105
M109 S215
M82
G28 X0 Y0
G28 Z0
G92 E0
G92 E0
G1 F2700 E-3
M107
G0 F4200 X15.009 Y13.865 Z0.11
G1 F2700 E0
G1 F1800 X15.412 Y13.468 E0.0069
G1 X15.866 Y13.132 E0.01379
G1 X16.364 Y12.863 E0.0207
G1 X16.894 Y12.668 E0.02759
G1 X17.447 Y12.549 E0.03449
G1 X17.898 Y12.511 E0.04001
G1 X18.218 Y12.502 E0.04392
G1 X18.33 Y12.5 E0.04528
G1 X40.35 Y12.5 E0.31394
G1 X41.048 Y12.51 E0.32245
G1 X41.377 Y12.529 E0.32648
G1 X41.97 Y12.586 E0.33374
G1 X44.733 Y12.821 E0.36758
G1 X47.469 Y12.975 E0.40101
G1 X50.14 Y13.05 E0.43361
G1 X52.882 Y13.05 E0.46706
G1 X55.558 Y12.973 E0.49972
G1 X58.323 Y12.817 E0.53351
G1 X60.984 Y12.589 E0.5661
G1 X61.269 Y12.559 E0.56959
G1 X61.34 Y12.552 E0.57046
G1 X61.647 Y12.525 E0.57422
G1 X61.877 Y12.512 E0.57703
G1 X62.21 Y12.502 E0.5811
G1 X62.33 Y12.5 E0.58256
G1 X101.345 Y12.5 E1.05856
G1 X102.043 Y12.509 E1.06708
G1 X102.606 Y12.557 E1.07397
G1 X103.157 Y12.683 E1.08087
G1 X103.685 Y12.885 E1.08777
G1 X104.179 Y13.16 E1.09467
G1 X104.629 Y13.502 E1.10156
G1 X105.027 Y13.904 E1.10846
G1 X105.363 Y14.358 E1.11535
G1 X105.633 Y14.855 E1.12225
G1 X105.83 Y15.385 E1.12915
G1 X105.95 Y15.937 E1.13605
G1 X105.989 Y16.397 E1.14168
G1 X105.998 Y16.718 E1.1456
G1 X106 Y16.83 E1.14696
G1 X106 Y90.637 E2.04744
G1 X105.999 Y90.706 E2.04828
G1 X105.977 Y91.977 E2.06379
G1 X105.965 Y92.234 E2.06693
G1 X105.902 Y93.004 E2.07636
G1 X105.87 Y93.277 E2.07971
G1 X105.772 Y93.924 E2.08769
G1 X105.72 Y94.2 E2.09112
G1 X105.563 Y94.9 E2.09987
G1 X105.497 Y95.156 E2.1031
G1 X105.324 Y95.743 E2.11057
G1 X105.238 Y96.002 E2.1139
G1 X104.97 Y96.725 E2.1233
G1 X104.864 Y96.981 E2.12668
G1 X104.612 Y97.539 E2.13415
G1 X104.492 Y97.784 E2.13748
G1 X104.147 Y98.427 E2.14638
G1 X104.009 Y98.664 E2.14973
G1 X103.671 Y99.202 E2.15748
G1 X103.521 Y99.423 E2.16074
G1 X103.095 Y100.01 E2.16959
G1 X102.924 Y100.23 E2.17299
G1 X102.505 Y100.73 E2.18095
G1 X102.325 Y100.931 E2.18424
G1 X101.849 Y101.427 E2.19263
G1 X101.651 Y101.619 E2.19599
G1 X101.132 Y102.09 E2.20454
G1 X100.923 Y102.267 E2.20788
G1 X100.428 Y102.658 E2.21558
G1 X100.209 Y102.819 E2.2189
G1 X99.587 Y103.245 E2.22809
G1 X99.36 Y103.39 E2.23138
G1 X98.828 Y103.704 E2.23892
G1 X98.579 Y103.839 E2.24237
G1 X97.925 Y104.165 E2.25129
G1 X97.688 Y104.274 E2.25447
G1 X97.099 Y104.521 E2.26226
G1 X96.838 Y104.62 E2.26567
G1 X96.146 Y104.855 E2.27459
G1 X95.889 Y104.932 E2.27786
G1 X95.273 Y105.096 E2.28564
G1 X94.998 Y105.159 E2.28908
G1 X94.3 Y105.293 E2.29775
G1 X94.03 Y105.336 E2.30109
G1 X93.374 Y105.416 E2.30915
G1 X93.109 Y105.439 E2.31239
G1 X92.433 Y105.476 E2.32065
G1 X92.281 Y105.481 E2.32251
G1 X91.204 Y105.499 E2.33565
G1 X91.137 Y105.5 E2.33647
G1 X28.831 Y105.5 E3.09663
G1 X28.766 Y105.499 E3.09742
G1 X27.532 Y105.479 E3.11248
G1 X27.275 Y105.467 E3.11562
G1 X26.532 Y105.407 E3.12471
G1 X26.253 Y105.375 E3.12814
G1 X25.569 Y105.271 E3.13658
G1 X25.298 Y105.22 E3.13995
G1 X24.591 Y105.062 E3.14878
G1 X24.337 Y104.996 E3.15199
G1 X23.679 Y104.803 E3.16035
G1 X23.478 Y104.738 E3.16293
G1 X23.117 Y104.611 E3.1676
G1 X22.824 Y104.495 E3.17144
G1 X21.975 Y104.119 E3.18277
G1 X21.703 Y103.986 E3.18647
G1 X21.094 Y103.659 E3.1949
G1 X20.865 Y103.527 E3.19812
G1 X20.318 Y103.185 E3.20599
G1 X20.088 Y103.029 E3.20939
G1 X19.481 Y102.588 E3.21854
G1 X19.264 Y102.419 E3.22189
G1 X18.76 Y101.997 E3.22991
G1 X18.555 Y101.813 E3.23328
G1 X18.084 Y101.36 E3.24125
G1 X17.898 Y101.169 E3.2445
G1 X17.435 Y100.66 E3.2529
G1 X17.259 Y100.452 E3.25622
G1 X16.836 Y99.918 E3.26453
G1 X16.669 Y99.692 E3.26796
G1 X16.256 Y99.088 E3.27689
G1 X16.114 Y98.864 E3.28012
G1 X15.795 Y98.324 E3.28777
G1 X15.66 Y98.077 E3.29121
G1 X15.347 Y97.45 E3.29976
G1 X15.24 Y97.215 E3.30291
G1 X14.981 Y96.6 E3.31105
G1 X14.877 Y96.327 E3.31462
G1 X14.64 Y95.625 E3.32365
G1 X14.566 Y95.381 E3.32677
G1 X14.416 Y94.821 E3.33384
G1 X14.352 Y94.54 E3.33735
G1 X14.208 Y93.79 E3.34667
G1 X14.167 Y93.53 E3.34988
G1 X14.085 Y92.871 E3.35799
G1 X14.06 Y92.59 E3.36143
G1 X14.027 Y91.971 E3.36899
G1 X14.022 Y91.83 E3.37071
G1 X14.002 Y90.724 E3.38421
G1 X14.001 Y90.652 E3.38509
G1 X14 Y17.174 E4.28155
G1 X14 Y17.114 E4.28228
G1 X14.01 Y16.449 E4.2904
G1 X14.059 Y15.886 E4.29729
G1 X14.186 Y15.335 E4.30419
G1 X14.39 Y14.807 E4.3111
G1 X14.666 Y14.314 E4.31799
G1 X15.009 Y13.865 E4.32488
G0 F4200 X15.402 Y14.027
G1 F1800 X15.8 Y13.668 E4.33142
G1 X16.246 Y13.371 E4.33796
G1 X16.732 Y13.143 E4.34451
G1 X17.246 Y12.991 E4.35105
G1 X17.909 Y12.91 E4.3592
G1 X18.229 Y12.901 E4.36311
G1 X18.33 Y12.9 E4.36434
G1 X40.345 Y12.9 E4.63293
G1 X41.043 Y12.91 E4.64145
G1 X41.338 Y12.927 E4.64505
G1 X41.942 Y12.986 E4.65246
G1 X44.712 Y13.221 E4.68637
G1 X47.399 Y13.373 E4.71921
G1 X50.165 Y13.45 E4.75297
G1 X52.859 Y13.45 E4.78584
G1 X55.626 Y13.371 E4.81961
G1 X58.311 Y13.219 E4.85242
G1 X61.06 Y12.984 E4.88608
G1 X61.311 Y12.957 E4.88916
G1 X61.375 Y12.951 E4.88994
G1 X61.682 Y12.924 E4.8937
G1 X61.889 Y12.912 E4.89623
G1 X62.222 Y12.902 E4.9003
G1 X62.33 Y12.9 E4.90162
G1 X101.339 Y12.9 E5.37754
G1 X102.037 Y12.909 E5.38606
G1 X102.572 Y12.956 E5.39261
G1 X103.093 Y13.082 E5.39915
G1 X103.59 Y13.284 E5.4057
G1 X104.051 Y13.557 E5.41224
G1 X104.467 Y13.896 E5.41878
G1 X104.828 Y14.292 E5.42532
G1 X105.126 Y14.738 E5.43186
G1 X105.354 Y15.224 E5.43841
G1 X105.507 Y15.738 E5.44496
G1 X105.59 Y16.408 E5.45319
G1 X105.599 Y16.729 E5.45711
G1 X105.6 Y16.83 E5.45834
G1 X105.6 Y90.637 E6.35882
G1 X105.599 Y90.699 E6.35958
G1 X105.577 Y91.97 E6.37509
G1 X105.566 Y92.202 E6.37792
G1 X105.503 Y92.972 E6.38735
G1 X105.474 Y93.217 E6.39036
G1 X105.376 Y93.864 E6.39834
G1 X105.33 Y94.113 E6.40143
G1 X105.173 Y94.813 E6.41018
G1 X105.113 Y95.043 E6.41308
G1 X104.94 Y95.63 E6.42055
G1 X104.863 Y95.863 E6.42354
G1 X104.595 Y96.586 E6.43295
G1 X104.5 Y96.817 E6.436
G1 X104.248 Y97.375 E6.44347
G1 X104.139 Y97.595 E6.44646
G1 X103.794 Y98.238 E6.45537
G1 X103.67 Y98.451 E6.45837
G1 X103.332 Y98.989 E6.46613
G1 X103.198 Y99.188 E6.46905
G1 X102.772 Y99.775 E6.4779
G1 X102.617 Y99.973 E6.48097
G1 X102.198 Y100.473 E6.48893
G1 X102.036 Y100.654 E6.49189
G1 X101.56 Y101.15 E6.50028
G1 X101.382 Y101.323 E6.50331
G1 X100.863 Y101.794 E6.51186
G1 X100.675 Y101.953 E6.51486
G1 X100.18 Y102.344 E6.52256
G1 X99.983 Y102.489 E6.52554
G1 X99.361 Y102.915 E6.53474
G1 X99.157 Y103.045 E6.53769
G1 X98.625 Y103.359 E6.54523
G1 X98.401 Y103.481 E6.54834
G1 X97.747 Y103.807 E6.55726
G1 X97.533 Y103.905 E6.56013
G1 X96.944 Y104.152 E6.56792
G1 X96.71 Y104.241 E6.57098
G1 X96.018 Y104.476 E6.57989
G1 X95.786 Y104.546 E6.58285
G1 X95.17 Y104.71 E6.59063
G1 X94.923 Y104.766 E6.59372
G1 X94.225 Y104.9 E6.60239
G1 X93.982 Y104.939 E6.60539
G1 X93.326 Y105.019 E6.61345
G1 X93.087 Y105.04 E6.61638
G1 X92.411 Y105.077 E6.62464
G1 X92.274 Y105.081 E6.62631
G1 X91.197 Y105.099 E6.63945
G1 X91.137 Y105.1 E6.64019
G1 X28.773 Y105.1 E7.40106
G1 X27.539 Y105.08 E7.41611
G1 X27.307 Y105.068 E7.41895
G1 X26.564 Y105.008 E7.42804
G1 X26.313 Y104.979 E7.43112
G1 X25.629 Y104.875 E7.43956
G1 X25.385 Y104.829 E7.44259
G1 X24.678 Y104.671 E7.45143
G1 X24.45 Y104.612 E7.45431
G1 X23.792 Y104.419 E7.46267
G1 X23.61 Y104.361 E7.465
G1 X23.249 Y104.234 E7.46967
G1 X22.986 Y104.13 E7.47312
G1 X22.137 Y103.754 E7.48445
G1 X21.892 Y103.634 E7.48778
G1 X21.283 Y103.307 E7.49621
G1 X21.078 Y103.187 E7.49911
G1 X20.531 Y102.845 E7.50698
G1 X20.323 Y102.705 E7.51004
G1 X19.716 Y102.264 E7.51919
G1 X19.521 Y102.112 E7.52221
G1 X19.017 Y101.69 E7.53023
G1 X18.832 Y101.525 E7.53325
G1 X18.361 Y101.072 E7.54123
G1 X18.194 Y100.899 E7.54416
G1 X17.731 Y100.39 E7.55256
G1 X17.572 Y100.203 E7.55555
G1 X17.149 Y99.669 E7.56386
G1 X16.999 Y99.466 E7.56694
G1 X16.586 Y98.862 E7.57587
G1 X16.458 Y98.661 E7.57878
G1 X16.139 Y98.121 E7.58643
G1 X16.018 Y97.898 E7.58952
G1 X15.705 Y97.271 E7.59807
G1 X15.608 Y97.06 E7.60091
G1 X15.349 Y96.445 E7.60905
G1 X15.256 Y96.2 E7.61225
G1 X15.019 Y95.498 E7.62129
G1 X14.953 Y95.277 E7.6241
G1 X14.803 Y94.717 E7.63117
G1 X14.745 Y94.465 E7.63433
G1 X14.601 Y93.715 E7.64364
G1 X14.564 Y93.481 E7.64654
G1 X14.482 Y92.822 E7.65464
G1 X14.459 Y92.569 E7.65774
G1 X14.426 Y91.95 E7.6653
G1 X14.422 Y91.823 E7.66685
G1 X14.402 Y90.717 E7.68035
G1 X14.401 Y90.652 E7.68114
G1 X14.4 Y17.174 E8.5776
G1 X14.4 Y17.12 E8.57826
G1 X14.41 Y16.455 E8.58638
G1 X14.458 Y15.921 E8.59292
G1 X14.585 Y15.4 E8.59946
G1 X14.788 Y14.903 E8.60601
G1 X15.062 Y14.442 E8.61255
G1 X15.402 Y14.027 E8.6191
G0 F4200 X15.458 Y14.578
G1 F1800 X15.794 Y14.201 E8.62526
G1 X16.185 Y13.88 E8.63143
G1 X16.622 Y13.626 E8.6376
G1 X17.093 Y13.443 E8.64376
G1 X17.588 Y13.337 E8.64994
G1 X17.92 Y13.31 E8.654
G1 X18.24 Y13.301 E8.65791
G1 X18.33 Y13.3 E8.65901
G1 X40.339 Y13.3 E8.92753
G1 X41.037 Y13.31 E8.93605
G1 X41.3 Y13.325 E8.93926
G1 X41.94 Y13.387 E8.9471
G1 X44.658 Y13.619 E8.98039
G1 X47.403 Y13.773 E9.01393
G1 X50.153 Y13.85 E9.04749
G1 X52.87 Y13.85 E9.08064
G1 X55.626 Y13.771 E9.11428
G1 X58.367 Y13.616 E9.14777
G1 X61.086 Y13.383 E9.18107
G1 X61.353 Y13.355 E9.18434
G1 X61.41 Y13.349 E9.18504
G1 X61.717 Y13.322 E9.1888
G1 X61.901 Y13.311 E9.19105
G1 X62.234 Y13.301 E9.19512
G1 X62.33 Y13.3 E9.19629
G1 X101.334 Y13.3 E9.67216
G1 X102.032 Y13.309 E9.68067
G1 X102.536 Y13.356 E9.68685
G1 X103.026 Y13.481 E9.69302
G1 X103.49 Y13.682 E9.69919
G1 X103.916 Y13.953 E9.70535
G1 X104.295 Y14.288 E9.71152
G1 X104.616 Y14.679 E9.71769
G1 X104.871 Y15.115 E9.72385
G1 X105.055 Y15.586 E9.73002
G1 X105.162 Y16.08 E9.73619
G1 X105.19 Y16.419 E9.74034
G1 X105.199 Y16.74 E9.74426
G1 X105.2 Y16.83 E9.74536
G1 X105.2 Y90.692 E10.64651
G1 X105.178 Y91.963 E10.66201
G1 X105.167 Y92.169 E10.66453
G1 X105.104 Y92.939 E10.67396
G1 X105.079 Y93.157 E10.67663
G1 X104.981 Y93.804 E10.68462
G1 X104.939 Y94.025 E10.68736
G1 X104.782 Y94.725 E10.69612
G1 X104.729 Y94.93 E10.6987
G1 X104.556 Y95.517 E10.70617
G1 X104.487 Y95.724 E10.70883
G1 X104.219 Y96.447 E10.71823
G1 X104.135 Y96.652 E10.72094
G1 X103.883 Y97.21 E10.72841
G1 X103.787 Y97.406 E10.73107
G1 X103.442 Y98.049 E10.73997
G1 X103.332 Y98.238 E10.74264
G1 X102.994 Y98.776 E10.75039
G1 X102.874 Y98.954 E10.75301
G1 X102.448 Y99.541 E10.76186
G1 X102.311 Y99.716 E10.76457
G1 X101.892 Y100.216 E10.77253
G1 X101.748 Y100.377 E10.77517
G1 X101.272 Y100.873 E10.78355
G1 X101.114 Y101.027 E10.78625
G1 X100.595 Y101.498 E10.7948
G1 X100.428 Y101.639 E10.79746
G1 X99.933 Y102.03 E10.80516
G1 X99.757 Y102.159 E10.80782
G1 X99.135 Y102.585 E10.81702
G1 X98.954 Y102.701 E10.81964
G1 X98.422 Y103.015 E10.82718
G1 X98.223 Y103.123 E10.82994
G1 X97.569 Y103.449 E10.83886
G1 X97.379 Y103.536 E10.84141
G1 X96.79 Y103.783 E10.8492
G1 X96.581 Y103.862 E10.85192
G1 X95.889 Y104.097 E10.86084
G1 X95.683 Y104.159 E10.86347
G1 X95.067 Y104.323 E10.87124
G1 X94.847 Y104.374 E10.874
G1 X94.149 Y104.508 E10.88267
G1 X93.933 Y104.541 E10.88534
G1 X93.277 Y104.621 E10.8934
G1 X93.065 Y104.64 E10.896
G1 X92.389 Y104.677 E10.90426
G1 X92.267 Y104.682 E10.90574
G1 X91.19 Y104.7 E10.91889
G1 X28.779 Y104.7 E11.68033
G1 X27.545 Y104.68 E11.69539
G1 X27.339 Y104.67 E11.6979
G1 X26.596 Y104.61 E11.707
G1 X26.373 Y104.584 E11.70974
G1 X25.689 Y104.48 E11.71818
G1 X25.472 Y104.439 E11.72087
G1 X24.765 Y104.281 E11.72971
G1 X24.562 Y104.229 E11.73227
G1 X23.904 Y104.036 E11.74063
G1 X23.743 Y103.984 E11.7427
G1 X23.382 Y103.857 E11.74737
G1 X23.148 Y103.764 E11.75044
G1 X22.299 Y103.388 E11.76177
G1 X22.081 Y103.281 E11.76473
G1 X21.472 Y102.954 E11.77316
G1 X21.29 Y102.848 E11.77573
G1 X20.743 Y102.506 E11.7836
G1 X20.558 Y102.382 E11.78632
G1 X19.951 Y101.941 E11.79547
G1 X19.778 Y101.806 E11.79815
G1 X19.274 Y101.384 E11.80617
G1 X19.11 Y101.236 E11.80887
G1 X18.639 Y100.783 E11.81684
G1 X18.49 Y100.63 E11.81945
G1 X18.027 Y100.121 E11.82784
G1 X17.886 Y99.955 E11.8305
G1 X17.463 Y99.421 E11.83881
G1 X17.329 Y99.24 E11.84156
G1 X16.916 Y98.636 E11.85048
G1 X16.803 Y98.458 E11.85306
G1 X16.484 Y97.918 E11.86071
G1 X16.376 Y97.719 E11.86347
G1 X16.063 Y97.092 E11.87202
G1 X15.977 Y96.905 E11.87453
G1 X15.718 Y96.29 E11.88267
G1 X15.635 Y96.072 E11.88552
G1 X15.398 Y95.37 E11.89456
G1 X15.339 Y95.174 E11.89706
G1 X15.189 Y94.614 E11.90413
G1 X15.137 Y94.389 E11.90695
G1 X14.993 Y93.639 E11.91626
G1 X14.96 Y93.431 E11.91883
G1 X14.878 Y92.772 E11.92694
G1 X14.859 Y92.547 E11.92969
G1 X14.826 Y91.928 E11.93725
G1 X14.822 Y91.816 E11.93862
G1 X14.802 Y90.71 E11.95212
G1 X14.801 Y90.652 E11.95282
G1 X14.8 Y17.174 E12.84929
G1 X14.8 Y17.126 E12.84988
G1 X14.81 Y16.461 E12.85799
G1 X14.858 Y15.958 E12.86415
G1 X14.984 Y15.468 E12.87033
G1 X15.186 Y15.004 E12.8765
G1 X15.458 Y14.578 E12.88267
G1 F2700 E9.88267
G0 F4200 X17.336 Y17.063
G0 X18.47 Y17.062
G0 X40.522 Y24.978
G0 X63.05 Y25.55
G1 F2700 E12.88267
G1 F1800 X63.05 Y17.55 E13.02907
G1 X100.95 Y17.55 E13.72267
G1 X100.95 Y91.465 E15.07537
G1 X100.927 Y92.137 E15.08767
G1 X100.871 Y92.684 E15.09773
G1 X100.761 Y93.322 E15.10958
G1 X100.614 Y93.926 E15.12096
G1 X100.434 Y94.501 E15.13198
G1 X100.219 Y95.044 E15.14267
G1 X99.946 Y95.62 E15.15434
G1 X99.653 Y96.141 E15.16528
G1 X99.318 Y96.654 E15.17649
G1 X98.947 Y97.143 E15.18772
G1 X98.54 Y97.61 E15.19906
G1 X98.115 Y98.035 E15.21006
G1 X97.659 Y98.433 E15.22114
G1 X97.167 Y98.807 E15.23245
G1 X96.656 Y99.143 E15.24364
G1 X96.101 Y99.453 E15.25527
G1 X95.572 Y99.706 E15.266
G1 X94.991 Y99.936 E15.27744
G1 X94.41 Y100.118 E15.28858
G1 X93.845 Y100.257 E15.29923
G1 X93.184 Y100.371 E15.3115
G1 X92.641 Y100.427 E15.32149
G1 X91.965 Y100.45 E15.33387
G1 X28.035 Y100.45 E16.50384
G1 X27.359 Y100.428 E16.51621
G1 X26.822 Y100.373 E16.52609
G1 X26.161 Y100.259 E16.53837
G1 X25.591 Y100.119 E16.54911
G1 X25.016 Y99.939 E16.56014
G1 X24.437 Y99.71 E16.57153
G1 X23.904 Y99.456 E16.58234
G1 X23.328 Y99.133 E16.59442
G1 X22.846 Y98.817 E16.60497
G1 X22.349 Y98.439 E16.6164
G1 X21.893 Y98.042 E16.62746
G1 X21.467 Y97.617 E16.63847
G1 X21.053 Y97.143 E16.64999
G1 X20.689 Y96.663 E16.66102
G1 X20.358 Y96.158 E16.67207
G1 X20.048 Y95.604 E16.68368
G1 X19.782 Y95.044 E16.69503
G1 X19.568 Y94.501 E16.70571
G1 X19.385 Y93.917 E16.71691
G1 X19.242 Y93.334 E16.7279
G1 X19.131 Y92.69 E16.73986
G1 X19.075 Y92.146 E16.74986
G1 X19.051 Y91.506 E16.76158
G1 X19.05 Y17.7 E18.11229
G1 X19.05 Y17.55 E18.11503
G1 X19.2 Y17.55 E18.11681
G1 X39.95 Y17.55 E18.49655
G1 X39.95 Y25.55 E18.64295
G1 X63.05 Y25.55 E19.0657
G0 F4200 X90.518 Y34.618
G0 X91.831 Y35.19
G0 X93.054 Y35.933
G0 X94.164 Y36.838
G0 X95.14 Y37.884
G0 X95.966 Y39.055
G0 X96.624 Y40.327
G0 X97.103 Y41.676
G0 X97.393 Y43.077
G0 X97.489 Y44.803
G0 X97.463 Y87.221
G0 X97.269 Y88.641
G0 X96.881 Y90.018
G0 X96.309 Y91.331
G0 X95.566 Y92.555
G0 X94.661 Y93.666
G0 X93.616 Y94.641
G0 X92.444 Y95.467
G0 X91.416 Y95.998
G0 X87.739 Y97.528
G1 F1800 X88.499 Y97.449 E19.07968
G1 X89.243 Y97.322 E19.09349
G1 X89.975 Y97.143 E19.10728
G1 X90.693 Y96.916 E19.12106
G1 X91.396 Y96.638 E19.1349
G1 X92.078 Y96.316 E19.1487
G1 X92.736 Y95.947 E19.16251
G1 X93.368 Y95.532 E19.17634
G1 X93.969 Y95.076 E19.19015
G1 X94.538 Y94.582 E19.20394
G1 X95.07 Y94.049 E19.21772
G1 X95.568 Y93.481 E19.23155
G1 X96.024 Y92.878 E19.24538
G1 X96.439 Y92.247 E19.2592
G1 X96.806 Y91.589 E19.27299
G1 X97.132 Y90.91 E19.28678
G1 X97.41 Y90.205 E19.30065
G1 X97.637 Y89.488 E19.31441
G1 X97.818 Y88.755 E19.32823
G1 X97.945 Y88.011 E19.34204
G1 X98.022 Y87.261 E19.35584
G1 X98.049 Y86.524 E19.36933
G1 X98.05 Y44.797 E20.13297
G1 X98.028 Y43.757 E20.152
G1 X97.948 Y43 E20.16593
G1 X97.822 Y42.257 E20.17973
G1 X97.643 Y41.524 E20.19353
G1 X97.415 Y40.806 E20.20732
G1 X97.138 Y40.104 E20.22113
G1 X96.815 Y39.421 E20.23496
G1 X96.446 Y38.763 E20.24876
G1 X96.031 Y38.131 E20.2626
G1 X95.575 Y37.531 E20.27639
G1 X95.082 Y36.961 E20.29018
G1 X94.547 Y36.429 E20.30399
G1 X93.98 Y35.932 E20.31779
G1 X93.377 Y35.475 E20.33164
G1 X92.746 Y35.06 E20.34546
G1 X92.089 Y34.692 E20.35924
G1 X91.409 Y34.368 E20.37302
G1 X90.707 Y34.089 E20.38685
G1 X89.986 Y33.861 E20.40069
