; Generated by Aprintlab Editor Cloud Slicer (CuraEngine Compatibility Mode) on 19-05-2022
M140 S55
M105
M190 S55
M104 S215
M105
M109 S215
M82
G28 X0 Y0
G28 Z0
G92 E0
G92 E0
G1 F2700 E-3
M107
G0 F4200 X27.86 Y46.635 Z0.11
G1 F2700 E0
G1 F1800 X28.357 Y46.366 E0.00689
G1 X28.887 Y46.169 E0.01379
G1 X29.44 Y46.05 E0.02069
G1 X29.897 Y46.011 E0.02629
G1 X30.218 Y46.002 E0.03021
G1 X30.33 Y46 E0.03158
G1 X89.35 Y46 E0.75165
G1 X90.048 Y46.01 E0.76016
G1 X90.612 Y46.058 E0.76707
G1 X91.162 Y46.185 E0.77396
G1 X91.69 Y46.389 E0.78086
G1 X92.184 Y46.664 E0.78776
G1 X92.633 Y47.007 E0.79465
G1 X93.03 Y47.409 E0.80155
G1 X93.367 Y47.864 E0.80845
G1 X93.635 Y48.361 E0.81534
G1 X93.831 Y48.891 E0.82224
G1 X93.951 Y49.444 E0.82914
G1 X93.989 Y49.898 E0.8347
G1 X93.998 Y50.218 E0.83861
G1 X94 Y50.33 E0.83997
G1 X94 Y59.314 E0.94958
G1 X93.991 Y60.041 E0.95845
G1 X93.944 Y60.604 E0.96534
G1 X93.818 Y61.155 E0.97224
G1 X93.616 Y61.683 E0.97914
G1 X93.341 Y62.177 E0.98604
G1 X92.999 Y62.627 E0.99293
G1 X92.597 Y63.025 E0.99983
G1 X92.144 Y63.362 E1.00672
G1 X91.647 Y63.632 E1.01362
G1 X91.117 Y63.829 E1.02052
G1 X90.565 Y63.95 E1.02742
G1 X90.103 Y63.989 E1.03307
G1 X89.782 Y63.998 E1.03699
G1 X89.67 Y64 E1.03836
G1 X30.655 Y64 E1.75837
G1 X29.957 Y63.991 E1.76688
G1 X29.394 Y63.943 E1.77378
G1 X28.843 Y63.817 E1.78067
G1 X28.315 Y63.615 E1.78757
G1 X27.821 Y63.34 E1.79447
G1 X27.371 Y62.998 E1.80136
G1 X26.973 Y62.596 E1.80827
G1 X26.637 Y62.142 E1.81516
G1 X26.367 Y61.645 E1.82206
G1 X26.17 Y61.115 E1.82896
G1 X26.05 Y60.563 E1.83585
G1 X26.01 Y60.099 E1.84153
G1 X26.001 Y59.766 E1.84559
G1 X26 Y59.658 E1.84691
G1 X26 Y50.62 E1.95718
G1 X26.009 Y49.955 E1.96529
G1 X26.057 Y49.392 E1.97219
G1 X26.183 Y48.841 E1.97908
G1 X26.386 Y48.313 E1.98599
G1 X26.662 Y47.819 E1.99289
G1 X27.004 Y47.369 E1.99979
G1 X27.406 Y46.972 E2.00668
G1 X27.86 Y46.635 E2.01358
G0 F4200 X28.241 Y46.873
G1 F1800 X28.726 Y46.645 E2.02011
G1 X29.24 Y46.492 E2.02666
G1 X29.908 Y46.41 E2.03487
G1 X30.229 Y46.401 E2.03879
G1 X30.33 Y46.4 E2.04002
G1 X89.345 Y46.4 E2.76003
G1 X90.043 Y46.41 E2.76855
G1 X90.577 Y46.458 E2.77509
G1 X91.098 Y46.584 E2.78163
G1 X91.595 Y46.787 E2.78818
G1 X92.056 Y47.061 E2.79472
G1 X92.471 Y47.4 E2.80126
G1 X92.831 Y47.798 E2.80781
G1 X93.128 Y48.244 E2.81434
G1 X93.356 Y48.73 E2.82089
G1 X93.508 Y49.244 E2.82743
G1 X93.59 Y49.909 E2.83561
G1 X93.599 Y50.229 E2.83951
G1 X93.6 Y50.33 E2.84074
G1 X93.6 Y59.309 E2.95029
G1 X93.591 Y60.036 E2.95916
G1 X93.544 Y60.57 E2.9657
G1 X93.419 Y61.091 E2.97224
G1 X93.217 Y61.588 E2.97879
G1 X92.944 Y62.05 E2.98533
G1 X92.606 Y62.466 E2.99187
G1 X92.209 Y62.827 E2.99842
G1 X91.763 Y63.125 E3.00496
G1 X91.278 Y63.353 E3.0115
G1 X90.764 Y63.507 E3.01805
G1 X90.092 Y63.59 E3.02631
G1 X89.771 Y63.599 E3.03023
G1 X89.67 Y63.6 E3.03146
G1 X30.661 Y63.6 E3.7514
G1 X29.963 Y63.591 E3.75991
G1 X29.428 Y63.544 E3.76647
G1 X28.907 Y63.418 E3.77301
G1 X28.41 Y63.216 E3.77955
G1 X27.949 Y62.943 E3.78609
G1 X27.533 Y62.604 E3.79263
G1 X27.172 Y62.208 E3.79917
G1 X26.874 Y61.762 E3.80572
G1 X26.646 Y61.276 E3.81227
G1 X26.493 Y60.762 E3.81881
G1 X26.41 Y60.088 E3.82709
G1 X26.401 Y59.755 E3.83116
G1 X26.4 Y59.658 E3.83234
G1 X26.4 Y50.625 E3.94255
G1 X26.409 Y49.96 E3.95066
G1 X26.457 Y49.426 E3.9572
G1 X26.583 Y48.905 E3.96374
G1 X26.785 Y48.408 E3.97029
G1 X27.058 Y47.947 E3.97683
G1 X27.397 Y47.531 E3.98337
G1 X27.794 Y47.171 E3.98991
G1 X28.241 Y46.873 E3.99647
G0 F4200 X28.18 Y47.383
G1 F1800 X28.617 Y47.128 E4.00264
G1 X29.088 Y46.944 E4.00881
G1 X29.582 Y46.838 E4.01497
G1 X29.919 Y46.81 E4.0191
G1 X30.24 Y46.801 E4.02302
G1 X30.33 Y46.8 E4.02411
G1 X89.339 Y46.8 E4.74405
G1 X90.037 Y46.81 E4.75257
G1 X90.54 Y46.857 E4.75873
G1 X91.03 Y46.983 E4.7649
G1 X91.494 Y47.185 E4.77108
G1 X91.92 Y47.457 E4.77724
G1 X92.298 Y47.792 E4.78341
G1 X92.618 Y48.183 E4.78957
G1 X92.873 Y48.62 E4.79574
G1 X93.056 Y49.091 E4.80191
G1 X93.163 Y49.585 E4.80808
G1 X93.19 Y49.92 E4.81218
G1 X93.199 Y50.24 E4.81608
G1 X93.2 Y50.33 E4.81718
G1 X93.2 Y59.304 E4.92667
G1 X93.191 Y60.031 E4.93554
G1 X93.145 Y60.534 E4.9417
G1 X93.02 Y61.024 E4.94787
G1 X92.819 Y61.488 E4.95404
G1 X92.548 Y61.915 E4.96021
G1 X92.213 Y62.294 E4.96638
G1 X91.823 Y62.615 E4.97254
G1 X91.387 Y62.871 E4.97871
G1 X90.916 Y63.054 E4.98488
G1 X90.422 Y63.162 E4.99105
G1 X90.081 Y63.19 E4.99522
G1 X89.76 Y63.199 E4.99914
G1 X89.67 Y63.2 E5.00024
G1 X30.666 Y63.2 E5.72011
G1 X29.968 Y63.191 E5.72863
G1 X29.464 Y63.144 E5.7348
G1 X28.974 Y63.019 E5.74097
G1 X28.51 Y62.818 E5.74714
G1 X28.084 Y62.547 E5.7533
G1 X27.705 Y62.212 E5.75948
G1 X27.384 Y61.821 E5.76565
G1 X27.129 Y61.385 E5.77181
G1 X26.945 Y60.914 E5.77798
G1 X26.838 Y60.42 E5.78415
G1 X26.81 Y60.077 E5.78834
G1 X26.801 Y59.744 E5.79241
G1 X26.8 Y59.658 E5.79346
G1 X26.8 Y50.631 E5.90359
G1 X26.809 Y49.966 E5.91171
G1 X26.856 Y49.462 E5.91788
G1 X26.982 Y48.973 E5.92404
G1 X27.183 Y48.509 E5.93021
G1 X27.454 Y48.082 E5.93638
G1 X27.789 Y47.704 E5.94254
G1 X28.18 Y47.383 E5.94872
G1 F2700 E2.94872
G0 F4200 X30.464 Y49.335
G0 X30.464 Y50.464
G0 X31.05 Y58.95
G1 F2700 E5.94872
G1 F1800 X31.05 Y51.05 E6.09329
G1 X88.95 Y51.05 E7.1529
G1 X88.95 Y58.95 E7.29748
G1 X31.05 Y58.95 E8.35709
G0 F4200 X30.75 Y59.25
G1 F1800 X30.75 Y50.75 E8.51264
G1 X89.25 Y50.75 E9.58323
G1 X89.25 Y59.25 E9.73879
G1 X30.75 Y59.25 E10.80938
G0 F4200 X30.45 Y59.55
G1 F1800 X30.45 Y50.45 E10.97592
G1 X89.55 Y50.45 E12.05749
G1 X89.55 Y59.55 E12.22403
G1 X30.45 Y59.55 E13.3056
G0 F4200 X30.15 Y59.85
G1 F1800 X30.15 Y50.15 E13.48311
G1 X89.85 Y50.15 E14.57566
G1 X89.85 Y59.85 E14.75318
G1 X30.15 Y59.85 E15.84573
G0 F4200 X30.15 Y59.65
G0 X30.52 Y59.48
G0 X31.34 Y58.66
G1 F1800 X31.34 Y51.34 E15.97969
G1 X88.66 Y51.34 E17.02869
G1 X88.66 Y58.66 E17.16265
G1 X31.34 Y58.66 E18.21165
G0 F4200 X31.8 Y58.529
G1 F1800 X31.469 Y58.198 E18.22021
G0 F4200 X31.469 Y57.774
G1 F1800 X32.224 Y58.529 E18.23975
G0 F4200 X32.649 Y58.529
G1 F1800 X31.469 Y57.349 E18.27029
G0 F4200 X31.469 Y56.925
G1 F1800 X33.073 Y58.529 E18.31181
G0 F4200 X33.497 Y58.529
G1 F1800 X31.469 Y56.501 E18.36429
G0 F4200 X31.469 Y56.077
G1 F1800 X33.922 Y58.529 E18.42777
G0 F4200 X34.346 Y58.529
G1 F1800 X31.469 Y55.652 E18.50223
G0 F4200 X31.469 Y55.228
G1 F1800 X34.77 Y58.529 E18.58766
G0 F4200 X35.194 Y58.529
G1 F1800 X31.469 Y54.804 E18.68407
G0 F4200 X31.469 Y54.38
G1 F1800 X35.619 Y58.529 E18.79146
G0 F4200 X36.043 Y58.529
G1 F1800 X31.469 Y53.955 E18.90984
G0 F4200 X31.469 Y53.531
G1 F1800 X36.467 Y58.529 E19.03919
G0 F4200 X36.891 Y58.529
G1 F1800 X31.469 Y53.107 E19.17952
G0 F4200 X31.469 Y52.682
G1 F1800 X37.316 Y58.529 E19.33085
G0 F4200 X37.74 Y58.529
G1 F1800 X31.469 Y52.258 E19.49315
G0 F4200 X31.469 Y51.834
G1 F1800 X38.164 Y58.529 E19.66642
G0 F4200 X38.588 Y58.529
G1 F1800 X31.529 Y51.469 E19.84913
G0 F4200 X31.953 Y51.469
G1 F1800 X39.013 Y58.529 E20.03185
G0 F4200 X39.437 Y58.529
G1 F1800 X32.377 Y51.469 E20.21457
G0 F4200 X32.801 Y51.469
G1 F1800 X39.861 Y58.529 E20.39729
G0 F4200 X40.285 Y58.529
G1 F1800 X33.226 Y51.469 E20.58
G0 F4200 X33.65 Y51.469
G1 F1800 X40.71 Y58.529 E20.76272
G0 F4200 X41.134 Y58.529
G1 F1800 X34.074 Y51.469 E20.94544
G0 F4200 X34.499 Y51.469
G1 F1800 X41.558 Y58.529 E21.12815
G0 F4200 X41.983 Y58.529
G1 F1800 X34.923 Y51.469 E21.31087
G0 F4200 X35.347 Y51.469
G1 F1800 X42.407 Y58.529 E21.49359
G0 F4200 X42.831 Y58.529
G1 F1800 X35.771 Y51.469 E21.67631
G0 F4200 X36.196 Y51.469
G1 F1800 X43.255 Y58.529 E21.85902
G0 F4200 X43.68 Y58.529
G1 F1800 X36.62 Y51.469 E22.04174
G0 F4200 X37.044 Y51.469
G1 F1800 X44.104 Y58.529 E22.22446
G0 F4200 X44.528 Y58.529
G1 F1800 X37.468 Y51.469 E22.40718
G0 F4200 X37.893 Y51.469
G1 F1800 X44.952 Y58.529 E22.58989
G0 F4200 X45.377 Y58.529
G1 F1800 X38.317 Y51.469 E22.77261
G0 F4200 X38.741 Y51.469
G1 F1800 X45.801 Y58.529 E22.95533
G0 F4200 X46.225 Y58.529
G1 F1800 X39.165 Y51.469 E23.13805
G0 F4200 X39.59 Y51.469
G1 F1800 X46.649 Y58.529 E23.32076
G0 F4200 X47.074 Y58.529
G1 F1800 X40.014 Y51.469 E23.50348
G0 F4200 X40.438 Y51.469
G1 F1800 X47.498 Y58.529 E23.6862
G0 F4200 X47.922 Y58.529
G1 F1800 X40.862 Y51.469 E23.86892
G0 F4200 X41.287 Y51.469
G1 F1800 X48.347 Y58.529 E24.05164
G0 F4200 X48.771 Y58.529
G1 F1800 X41.711 Y51.469 E24.23436
G0 F4200 X42.135 Y51.469
G1 F1800 X49.195 Y58.529 E24.41708
G0 F4200 X49.619 Y58.529
G1 F1800 X42.56 Y51.469 E24.59979
G0 F4200 X42.984 Y51.469
G1 F1800 X50.044 Y58.529 E24.78251
G0 F4200 X50.468 Y58.529
G1 F1800 X43.408 Y51.469 E24.96523
G0 F4200 X43.832 Y51.469
G1 F1800 X50.892 Y58.529 E25.14795
G0 F4200 X51.316 Y58.529
G1 F1800 X44.257 Y51.469 E25.33066
G0 F4200 X44.681 Y51.469
G1 F1800 X51.741 Y58.529 E25.51338
G0 F4200 X52.165 Y58.529
G1 F1800 X45.105 Y51.469 E25.6961
G0 F4200 X45.529 Y51.469
G1 F1800 X52.589 Y58.529 E25.87882
G0 F4200 X53.013 Y58.529
G1 F1800 X45.954 Y51.469 E26.06152
G0 F4200 X46.378 Y51.469
G1 F1800 X53.438 Y58.529 E26.24425
G0 F4200 X53.862 Y58.529
G1 F1800 X46.802 Y51.469 E26.42697
G0 F4200 X47.226 Y51.469
G1 F1800 X54.286 Y58.529 E26.60969
G0 F4200 X54.71 Y58.529
G1 F1800 X47.651 Y51.469 E26.79239
G0 F4200 X48.075 Y51.469
G1 F1800 X55.135 Y58.529 E26.97511
G0 F4200 X55.559 Y58.529
G1 F1800 X48.499 Y51.469 E27.15783
G0 F4200 X48.924 Y51.469
G1 F1800 X55.983 Y58.529 E27.34054
G0 F4200 X56.408 Y58.529
G1 F1800 X49.348 Y51.469 E27.52326
G0 F4200 X49.772 Y51.469
G1 F1800 X56.832 Y58.529 E27.70598
G0 F4200 X57.256 Y58.529
G1 F1800 X50.196 Y51.469 E27.8887
G0 F4200 X50.621 Y51.469
G1 F1800 X57.68 Y58.529 E28.07141
G0 F4200 X58.105 Y58.529
G1 F1800 X51.045 Y51.469 E28.25413
G0 F4200 X51.469 Y51.469
G1 F1800 X58.529 Y58.529 E28.43685
G0 F4200 X58.953 Y58.529
G1 F1800 X51.893 Y51.469 E28.61957
G0 F4200 X52.318 Y51.469
G1 F1800 X59.377 Y58.529 E28.80228
G0 F4200 X59.802 Y58.529
G1 F1800 X52.742 Y51.469 E28.985
G0 F4200 X53.166 Y51.469
G1 F1800 X60.226 Y58.529 E29.16772
G0 F4200 X60.65 Y58.529
G1 F1800 X53.59 Y51.469 E29.35044
G0 F4200 X54.015 Y51.469
G1 F1800 X61.074 Y58.529 E29.53315
G0 F4200 X61.499 Y58.529
G1 F1800 X54.439 Y51.469 E29.71587
G0 F4200 X54.863 Y51.469
G1 F1800 X61.923 Y58.529 E29.89859
G0 F4200 X62.347 Y58.529
G1 F1800 X55.287 Y51.469 E30.08131
G0 F4200 X55.712 Y51.469
G1 F1800 X62.771 Y58.529 E30.26402
G0 F4200 X63.196 Y58.529
G1 F1800 X56.136 Y51.469 E30.44674
G0 F4200 X56.56 Y51.469
G1 F1800 X63.62 Y58.529 E30.62946
G0 F4200 X64.044 Y58.529
G1 F1800 X56.985 Y51.469 E30.81217
G0 F4200 X57.409 Y51.469
G1 F1800 X64.469 Y58.529 E30.99489
G0 F4200 X64.893 Y58.529
G1 F1800 X57.833 Y51.469 E31.17761
G0 F4200 X58.257 Y51.469
G1 F1800 X65.317 Y58.529 E31.36033
G0 F4200 X65.741 Y58.529
G1 F1800 X58.682 Y51.469 E31.54304
G0 F4200 X59.106 Y51.469
G1 F1800 X66.166 Y58.529 E31.72576
G0 F4200 X66.59 Y58.529
G1 F1800 X59.53 Y51.469 E31.90848
G0 F4200 X59.954 Y51.469
G1 F1800 X67.014 Y58.529 E32.0912
G0 F4200 X67.438 Y58.529
G1 F1800 X60.379 Y51.469 E32.27391
G0 F4200 X60.803 Y51.469
G1 F1800 X67.863 Y58.529 E32.45663
G0 F4200 X68.287 Y58.529
G1 F1800 X61.227 Y51.469 E32.63935
G0 F4200 X61.651 Y51.469
G1 F1800 X68.711 Y58.529 E32.82207
G0 F4200 X69.135 Y58.529
G1 F1800 X62.076 Y51.469 E33.00477
G0 F4200 X62.5 Y51.469
G1 F1800 X69.56 Y58.529 E33.1875
G0 F4200 X69.984 Y58.529
G1 F1800 X62.924 Y51.469 E33.37022
G0 F4200 X63.348 Y51.469
G1 F1800 X70.408 Y58.529 E33.55294
G0 F4200 X70.833 Y58.529
G1 F1800 X63.773 Y51.469 E33.73566
G0 F4200 X64.197 Y51.469
G1 F1800 X71.257 Y58.529 E33.91838
G0 F4200 X71.681 Y58.529
G1 F1800 X64.621 Y51.469 E34.1011
G0 F4200 X65.046 Y51.469
G1 F1800 X72.105 Y58.529 E34.28381
G0 F4200 X72.53 Y58.529
G1 F1800 X65.47 Y51.469 E34.46653
G0 F4200 X65.894 Y51.469
G1 F1800 X72.954 Y58.529 E34.64925
G0 F4200 X73.378 Y58.529
G1 F1800 X66.318 Y51.469 E34.83197
G0 F4200 X66.743 Y51.469
G1 F1800 X73.802 Y58.529 E35.01467
G0 F4200 X74.227 Y58.529
G1 F1800 X67.167 Y51.469 E35.1974
G0 F4200 X67.591 Y51.469
G1 F1800 X74.651 Y58.529 E35.38012
G0 F4200 X75.075 Y58.529
G1 F1800 X68.015 Y51.469 E35.56284
G0 F4200 X68.44 Y51.469
G1 F1800 X75.499 Y58.529 E35.74554
G0 F4200 X75.924 Y58.529
G1 F1800 X68.864 Y51.469 E35.92826
G0 F4200 X69.288 Y51.469
G1 F1800 X76.348 Y58.529 E36.11098
G0 F4200 X76.772 Y58.529
G1 F1800 X69.712 Y51.469 E36.29371
G0 F4200 X70.137 Y51.469
G1 F1800 X77.196 Y58.529 E36.47641
G0 F4200 X77.621 Y58.529
G1 F1800 X70.561 Y51.469 E36.65913
G0 F4200 X70.985 Y51.469
G1 F1800 X78.045 Y58.529 E36.84185
G0 F4200 X78.469 Y58.529
G1 F1800 X71.41 Y51.469 E37.02456
G0 F4200 X71.834 Y51.469
G1 F1800 X78.894 Y58.529 E37.20728
G0 F4200 X79.318 Y58.529
G1 F1800 X72.258 Y51.469 E37.39
G0 F4200 X72.682 Y51.469
G1 F1800 X79.742 Y58.529 E37.57272
G0 F4200 X80.166 Y58.529
G1 F1800 X73.107 Y51.469 E37.75543
G0 F4200 X73.531 Y51.469
G1 F1800 X80.591 Y58.529 E37.93815
G0 F4200 X81.015 Y58.529
G1 F1800 X73.955 Y51.469 E38.12087
G0 F4200 X74.379 Y51.469
G1 F1800 X81.439 Y58.529 E38.30359
G0 F4200 X81.863 Y58.529
G1 F1800 X74.804 Y51.469 E38.4863
G0 F4200 X75.228 Y51.469
G1 F1800 X82.288 Y58.529 E38.66902
G0 F4200 X82.712 Y58.529
G1 F1800 X75.652 Y51.469 E38.85174
G0 F4200 X76.076 Y51.469
G1 F1800 X83.136 Y58.529 E39.03446
G0 F4200 X83.56 Y58.529
G1 F1800 X76.501 Y51.469 E39.21717
G0 F4200 X76.925 Y51.469
G1 F1800 X83.985 Y58.529 E39.39989
G0 F4200 X84.409 Y58.529
G1 F1800 X77.349 Y51.469 E39.58261
G0 F4200 X77.773 Y51.469
G1 F1800 X84.833 Y58.529 E39.76533
G0 F4200 X85.257 Y58.529
G1 F1800 X78.198 Y51.469 E39.94804
G0 F4200 X78.622 Y51.469
G1 F1800 X85.682 Y58.529 E40.13076
G0 F4200 X86.106 Y58.529
G1 F1800 X79.046 Y51.469 E40.31348
G0 F4200 X79.471 Y51.469
G1 F1800 X86.53 Y58.529 E40.49619
G0 F4200 X86.955 Y58.529
G1 F1800 X79.895 Y51.469 E40.67891
G0 F4200 X80.319 Y51.469
G1 F1800 X87.379 Y58.529 E40.86163
G0 F4200 X87.803 Y58.529
G1 F1800 X80.743 Y51.469 E41.04435
G0 F4200 X81.168 Y51.469
G1 F1800 X88.227 Y58.529 E41.22706
G0 F4200 X88.529 Y58.407
G1 F1800 X81.592 Y51.469 E41.40661
G0 F4200 X82.016 Y51.469
G1 F1800 X88.529 Y57.982 E41.57517
G0 F4200 X88.529 Y57.558
G1 F1800 X82.44 Y51.469 E41.73276
G0 F4200 X82.865 Y51.469
G1 F1800 X88.529 Y57.134 E41.87936
G0 F4200 X88.529 Y56.709
G1 F1800 X83.289 Y51.469 E42.01498
G0 F4200 X83.713 Y51.469
G1 F1800 X88.529 Y56.285 E42.13962
G0 F4200 X88.529 Y55.861
G1 F1800 X84.137 Y51.469 E42.25329
G0 F4200 X84.562 Y51.469
G1 F1800 X88.529 Y55.437 E42.35598
G0 F4200 X88.529 Y55.012
G1 F1800 X84.986 Y51.469 E42.44767
G0 F4200 X85.41 Y51.469
G1 F1800 X88.529 Y54.588 E42.5284
G0 F4200 X88.529 Y54.164
G1 F1800 X85.834 Y51.469 E42.59815
G0 F4200 X86.259 Y51.469
G1 F1800 X88.529 Y53.74 E42.65691
G0 F4200 X88.529 Y53.315
G1 F1800 X86.683 Y51.469 E42.70469
G0 F4200 X87.107 Y51.469
G1 F1800 X88.529 Y52.891 E42.74149
G0 F4200 X88.529 Y52.467
G1 F1800 X87.532 Y51.469 E42.7673
G0 F4200 X87.956 Y51.469
G1 F1800 X88.529 Y52.043 E42.78215
G0 F4200 X88.529 Y51.618
G1 F1800 X88.38 Y51.469 E42.786
G0 F600 X88.38 Y51.469 Z0.34
G0 F4200 X31.05 Y58.95
M140 S60
M106 S255
G1 F2700 X31.05 Y51.05 E43.01329
G1 X88.95 Y51.05 E44.67912
G1 X88.95 Y58.95 E44.90641
G1 X31.05 Y58.95 E46.57223
G0 F4200 X30.75 Y59.25
G1 F2700 X30.75 Y50.75 E46.81679
G1 X89.25 Y50.75 E48.49987
G1 X89.25 Y59.25 E48.74443
G1 X30.75 Y59.25 E50.42751
G0 F4200 X30.45 Y59.55
G1 F2700 X30.45 Y50.45 E50.68933
G1 X89.55 Y50.45 E52.38968
G1 X89.55 Y59.55 E52.65149
G1 X30.45 Y59.55 E54.35184
G0 F4200 X30.15 Y59.85
G1 F2700 X30.15 Y50.15 E54.63092
G1 X89.85 Y50.15 E56.34853
G1 X89.85 Y59.85 E56.62761
G1 X30.15 Y59.85 E58.34522
G0 F4200 X30.15 Y59.65
G0 X30.52 Y59.48
G0 X31.34 Y58.66
G1 F2700 X31.34 Y51.34 E58.55582
G1 X88.66 Y51.34 E60.20496
G1 X88.66 Y58.66 E60.41557
G1 X31.34 Y58.66 E62.06471
G0 F4200 X31.469 Y51.685
G1 F2700 X31.686 Y51.469 E62.07351
G0 F4200 X32.11 Y51.469
G1 F2700 X31.469 Y52.11 E62.0996
G0 F4200 X31.469 Y52.534
G1 F2700 X32.534 Y51.469 E62.14293
G0 F4200 X32.958 Y51.469
G1 F2700 X31.469 Y52.958 E62.20351
G0 F4200 X31.469 Y53.383
G1 F2700 X33.383 Y51.469 E62.28139
G0 F4200 X33.807 Y51.469
G1 F2700 X31.469 Y53.807 E62.37652
G0 F4200 X31.469 Y54.231
G1 F2700 X34.231 Y51.469 E62.4889
G0 F4200 X34.656 Y51.469
